svgs/sharp-light/hexagon-minus.svg

<svg xmlns="http://www.w3.org/2000/svg" viewBox="0 0 512 512"><!--! Font Awesome Pro 6.6.0 by @fontawesome - https://fontawesome.com License - https://fontawesome.com/license (Commercial License) Copyright 2024 Fonticons, Inc. --><path d="M36.9 256L146.6 64l218.9 0L475.1 256 365.4 448l-218.9 0L36.9 256zM128 32L0 256 128 480l256 0L512 256 384 32 128 32zm32 208l-16 0 0 32 16 0 192 0 16 0 0-32-16 0-192 0z"/></svg>

<svg xmlns="http://www.w3.org/2000/svg" viewBox="0 0 512 512"><!--! Font Awesome Pro 6.4.0 by @fontawesome - https://fontawesome.com License - https://fontawesome.com/license (Commercial License) Copyright 2023 Fonticons, Inc. --><path d="M36.9 256L146.6 64H365.4L475.1 256 365.4 448H146.6L36.9 256zM128 32L0 256 128 480H384L512 256 384 32H128zm32 208H144v32h16H352h16V240H352 160z"/></svg>
